X:1
T: Mario Theme
C: Overworld
Z: https://musescore.com/user/27687306/scores/4913846
L:1/8
M:C
Q:1/4=160
K:C
"G"ee ze z ce2|g2 z2 G2 z2|:"C"c2 z G2 z E2|z "F"A2 B2 _B A2|"C"(3G2e2g2 a2 fg| z e2 c d "G"B2 z:|
|:"C"z2 g^f =f ^d2 e|"F"^GAc z Acd|"C"z2 g^f =f ^d2 e|"G"z c'2 c' c'2 z2|
"C" z2 g^f =f ^d2 e|"F"z ^GAc z Acd|z2 "Ab"_e2 z "Bb"d2 z|"C"c2 z2 z4:|